dist/svgs/org-user.svg

<svg xmlns="http://www.w3.org/2000/svg" viewBox="0 0 512 512"><path d="M502 488q2 8-2.5 14.5T487 511h-4q-16 0-19-15l-19-91q-6-11-16-14l-116-41q-14-5-22.5-17t-8.5-27v-17q0-16 7-30.5t19-25.5q15-12 22.5-28.5T338 170v-48q0-35-23.5-59T256 39t-58.5 24-23.5 59v48q0 39 30 63 26 23 26 56v17q0 15-8.5 27T199 350L83 391q-10 3-16 14l-19 91q-2 8-8.5 12.5T25 511t-12.5-8.5T10 488l20-94q0-1 .5-2t.5-2q14-26 40-35l115-41q5-2 5-8v-17q0-17-12-26-21-17-32.5-41.5T135 170v-48q0-25 9.5-47t26-38.5 38.5-26T256 1t47 9.5 38.5 26 26 38.5 9.5 47v48q0 27-11.5 51.5T333 263q-12 9-12 26v17q0 6 5 8l115 41q28 9 40 35 0 1 .5 2t.5 2l20 94z"/></svg>

<?xml version="1.0" encoding="UTF-8" standalone="no"?><svg   xmlns:svg="http://www.w3.org/2000/svg"   xmlns="http://www.w3.org/2000/svg"   version="1.1"   width="512"   height="512"   viewBox="0 0 512 512">  <path     d="M502 488Q504 496 499.5 502.5T487 511H483Q467 511 464 496L445 405Q439 394 429 391L313 350Q299 345 290.5 333T282 306V289Q282 273 289 258.5T308 233Q323 221 330.5 204.5T338 170V122Q338 87 314.5 63T256 39T197.5 63T174 122V170Q174 209 204 233Q230 256 230 289V306Q230 321 221.5 333T199 350L83 391Q73 394 67 405L48 496Q46 504 39.5 508.5T25 511T12.5 502.5T10 488L30 394Q30 393 30.5 392T31 390Q45 364 71 355L186 314Q191 312 191 306V289Q191 272 179 263Q158 246 146.5 221.5T135 170V122Q135 97 144.5 75T170.5 36.5T209 10.5T256 1T303 10.5T341.5 36.5T367.5 75T377 122V170Q377 197 365.5 221.5T333 263Q321 272 321 289V306Q321 312 326 314L441 355Q469 364 481 390Q481 391 481.5 392T482 394L502 488V488z"     id="org-user" /></svg>
